apps/mobile/assets/icons/phosphor/sun.svg

<svg
  height="32"
  viewBox="0 0 256 256"
  width="32"
  xmlns="http://www.w3.org/2000/svg"
>
  <path
    d="m120 40v-24a8 8 0 0 1 16 0v24a8 8 0 0 1 -16 0zm72 88a64 64 0 1 1 -64-64 64.07 64.07 0 0 1 64 64zm-16 0a48 48 0 1 0 -48 48 48.05 48.05 0 0 0 48-48zm-117.66-58.34a8 8 0 0 0 11.32-11.32l-16-16a8 8 0 0 0 -11.32 11.32zm0 116.68-16 16a8 8 0 0 0 11.32 11.32l16-16a8 8 0 0 0 -11.32-11.32zm133.66-114.34a8 8 0 0 0 5.66-2.34l16-16a8 8 0 0 0 -11.32-11.32l-16 16a8 8 0 0 0 5.66 13.66zm5.66 114.34a8 8 0 0 0 -11.32 11.32l16 16a8 8 0 0 0 11.32-11.32zm-149.66-58.34a8 8 0 0 0 -8-8h-24a8 8 0 0 0 0 16h24a8 8 0 0 0 8-8zm80 80a8 8 0 0 0 -8 8v24a8 8 0 0 0 16 0v-24a8 8 0 0 0 -8-8zm112-88h-24a8 8 0 0 0 0 16h24a8 8 0 0 0 0-16z"
  />
</svg>

<svg xmlns="http://www.w3.org/2000/svg" width="32" height="32" fill="#000000" viewBox="0 0 256 256"><path d="M120,40V16a8,8,0,0,1,16,0V40a8,8,0,0,1-16,0Zm72,88a64,64,0,1,1-64-64A64.07,64.07,0,0,1,192,128Zm-16,0a48,48,0,1,0-48,48A48.05,48.05,0,0,0,176,128ZM58.34,69.66A8,8,0,0,0,69.66,58.34l-16-16A8,8,0,0,0,42.34,53.66Zm0,116.68-16,16a8,8,0,0,0,11.32,11.32l16-16a8,8,0,0,0-11.32-11.32ZM192,72a8,8,0,0,0,5.66-2.34l16-16a8,8,0,0,0-11.32-11.32l-16,16A8,8,0,0,0,192,72Zm5.66,114.34a8,8,0,0,0-11.32,11.32l16,16a8,8,0,0,0,11.32-11.32ZM48,128a8,8,0,0,0-8-8H16a8,8,0,0,0,0,16H40A8,8,0,0,0,48,128Zm80,80a8,8,0,0,0-8,8v24a8,8,0,0,0,16,0V216A8,8,0,0,0,128,208Zm112-88H216a8,8,0,0,0,0,16h24a8,8,0,0,0,0-16Z"></path></svg>
